X:1
T: The Newmarried Couple
C:
R:Jig
Q:180
K:G
M:6/8
L:1/16
D2|G2A2G2 G2B2d2|g2e2f2 d4c2|B2d2g2 d2B2G2|F2A2A2 A4D2|G2A2G2 G2B2d2|g2f2e2 d4c2|B2d2B2 c2A2F2|G2A2G2 G4D2|
G2A2G2 G2B2d2|g2e2f2 d4c2|B2d2g2 d2B2G2|F2A2A2 A4D2|G2A2G2 G2B2d2|g2f2e2 d4c2|B2d2B2 c2A2F2|G2A2G2 G4c2|
B2d2g2 d2B2G2|B2d2g2 d4c2|B2d2g2 d2B2G2|F2A2A2 A4c2|B2d2d2 d2e2f2|g2f2e2 f2d2c2|B2d2B2 c2A2F2|G2A2G2 G4c2|
B2d2g2 d2B2G2|B2d2g2 d4c2|B2d2g2 d2B2G2|F2A2A2 A4c2|B2d2d2 d2e2f2|g2f2e2 f2d2c2|B2d2B2 c2A2F2|G2A2G2 G4||
